X:1
T:Chelsea Bridge, 87.87 D
T:Chelsea Bridge, 87.87 D
T:Arranged by George Allan
T:Public Domain Courtesy of the Cyber Hymnal™
C:Arranged by George Allan
Z:Public Domain
Z:Courtesy of the Cyber Hymnal™
%%score ( 1 2 ) ( 3 4 )
L:1/8
Q:1/4=103
M:4/4
K:Eb
V:1 treble 
V:2 treble 
V:3 bass 
V:4 bass 
V:1
 [B,B]2 [B,D]2 E2 [Ec]2 | [EF]2 (GA) ([EG][DA]) [EB]2 | [Ge]2 (dc) f3 z e | d2 z [DB]4 x | %4
 [B,B]2 [B,D]2 E2 [Ec]2 | [EF]2 (GA) ([EG][DA]) [EB]2 | (BG) (ce) ([Fd][Ec]) ([EB][FA]) | %7
 [EG]2 [DF]2 E3 [Ge] x | [Fd]2 [Dc]2 [EB]3 [Ec] | [EB]2 ([DA][EG]) [EG]2 [DF]2 | %10
 [Fd]2 ([Ge][Af]) [FB]3 [B,D] | [CE]2 [EF]2 [DG]4 | [B,B]2 [CE]2 C3 z D | [CE]2 (ec) [EB]2 [EG]2 | %14
 (EF) (GA) (Bc) (AF) | [B,E]2 [B,D]2 [B,E]4 |] %16
V:2
 x4 E2 x2 | x2 D2 x4 | x2 F2 F2 G2 x | F3 c2 E x2 | x4 E2 x2 | x2 D2 x4 | E2 E2 x4 | x4 E3 x2 | %8
 x8 | x8 | x8 | x8 | x4 C2 B,2 x | x2 E2 x4 | C2 E2 E2 E2 | x8 |] %16
V:3
 [E,G,]2 [F,A,]2 [G,B,]2 [A,C]2 | B,2 [B,,B,]2 B,2 [G,B,]2 | [C,C]2 =A,2 [D,B,]2 [E,B,]2 x | %3
 [F,B,]2 [F,=A,]2 [B,,B,]4 | [E,G,]2 [F,A,]2 [G,B,]2 [A,C]2 | B,2 [B,,B,]2 B,2 [G,B,]2 | %6
 B,2 (A,C) B,2 ([G,B,][A,C]) | B,3 z A, [E,G,]3 [E,B,] | [F,B,]2 [A,B,]2 [G,B,]3 A, | %9
 [G,B,]2 B,2 [B,,B,]4 | [A,B,]2 B,2 [D,B,]3 [B,,A,] | [C,G,]2 [A,,C]2 [G,,=B,]4 | %12
 [E,G,]2 [C,G,]2 [A,,A,]2 [F,A,]2 x | [E,G,]2 (CA,) [E,G,]2 [E,B,]2 | %14
 [C,C]2 ([B,,E][A,,C]) [G,,B,]2 [A,,C]2 | [B,,G,]2 [B,,F,]2 [E,G,]4 |] %16
V:4
 x8 | B,2 (E,F,) x4 | x2 (F,E,) x5 | x8 | x8 | B,2 (E,F,) x4 | (G,E,) A,2 (B,A,) x2 | B,2 B,,2 x5 | %8
 x7 A, | x2 (F,E,) x4 | x2 (G,F,) x4 | x8 | x9 | x2 A,,2 x4 | x8 | x8 |] %16

